X: 98
T: POLKA: Pop No. 3
C: C: Damien Mullane; S: Damien Mullane
C: Set Leaders: Olya, Vova
Z: Oleg Naumov arr.; jeff_lindqvist at The Session
N: https://thesession.org/members/26966/sets/92364
R: Polka
M: 2/4
L: 1/8
Q: 1/4=140
K: Bmin
"Bm"d2 BA|"Bm (G)"Bd B2|"Bm (G)"AB df|"Em"e/f/e/d/ "A"BA|
"Bm"d2 BA|"Bm"Bd "Em"e2-|"Em"ed ef/a/|"G"b"(Bm)"a/f/ "A"af/e/|
"Bm"d2 BA|"Bm"Bd B2|"Bm (G)"AB df|"Em"e/f/e/d/ "A"BA|
"Bm"d2 BA|"Bm"Bd "Em"e2-|"Em"ed ef|"A"af "(A/F#)"ad'||
"G"b2 af|"D"ab f2|"A"e2 de|"Bm"fd cd|
"G"B2 AF|"D"AB df|"A"e2 de|"Bm"fd fa|
"G"b2 af|"D"ab f2|"A"e2 "(A/F#)"a>g|"Bm"fd cd|
"G"B2 AF|"G"AB df|"G"e2 de|"(A)"fd ec||

